images/6605147.svg

<?xml version="1.0" encoding="UTF-8"?>
<svg xmlns="http://www.w3.org/2000/svg" xmlns:xlink="http://www.w3.org/1999/xlink" width="300pt" height="300pt" viewBox="0 0 300 300" version="1.1">
<defs>
<g>
<symbol overflow="visible" id="glyph0-0">
<path style="stroke:none;" d="M 0.453125 1.59375 L 0.453125 -6.34375 L 4.953125 -6.34375 L 4.953125 1.59375 Z M 0.953125 1.09375 L 4.453125 1.09375 L 4.453125 -5.84375 L 0.953125 -5.84375 Z M 0.953125 1.09375 "/>
</symbol>
<symbol overflow="visible" id="glyph0-1">
<path style="stroke:none;" d="M 0.890625 -6.5625 L 2.078125 -6.5625 L 4.984375 -1.078125 L 4.984375 -6.5625 L 5.84375 -6.5625 L 5.84375 0 L 4.65625 0 L 1.75 -5.484375 L 1.75 0 L 0.890625 0 Z M 0.890625 -6.5625 "/>
</symbol>
<symbol overflow="visible" id="glyph0-2">
<path style="stroke:none;" d="M 0.890625 -6.5625 L 1.765625 -6.5625 L 1.765625 -3.875 L 5 -3.875 L 5 -6.5625 L 5.890625 -6.5625 L 5.890625 0 L 5 0 L 5 -3.125 L 1.765625 -3.125 L 1.765625 0 L 0.890625 0 Z M 0.890625 -6.5625 "/>
</symbol>
</g>
</defs>
<g id="surface34077">
<rect x="0" y="0" width="300" height="300" style="fill:rgb(100%,100%,100%);fill-opacity:1;stroke:none;"/>
<path style="fill:none;stroke-width:1.2;stroke-linecap:butt;stroke-linejoin:miter;stroke:rgb(0%,0%,0%);stroke-opacity:1;stroke-miterlimit:10;" d="M 35.25 137.960938 L 56.9375 127.347656 "/>
<path style="fill:none;stroke-width:1.2;stroke-linecap:butt;stroke-linejoin:miter;stroke:rgb(0%,0%,0%);stroke-opacity:1;stroke-miterlimit:10;" d="M 56.9375 127.347656 L 76.972656 140.824219 "/>
<path style="fill:none;stroke-width:1.2;stroke-linecap:butt;stroke-linejoin:miter;stroke:rgb(0%,0%,0%);stroke-opacity:1;stroke-miterlimit:10;" d="M 76.972656 140.824219 L 98.660156 130.214844 "/>
<path style="fill:none;stroke-width:1.2;stroke-linecap:butt;stroke-linejoin:miter;stroke:rgb(0%,0%,0%);stroke-opacity:1;stroke-miterlimit:10;" d="M 98.660156 130.214844 L 108.679688 136.953125 "/>
<path style="fill:none;stroke-width:1.2;stroke-linecap:butt;stroke-linejoin:miter;stroke:rgb(0%,0%,100%);stroke-opacity:1;stroke-miterlimit:10;" d="M 108.679688 136.953125 L 118.695312 143.691406 "/>
<path style="fill:none;stroke-width:1.2;stroke-linecap:butt;stroke-linejoin:miter;stroke:rgb(0%,0%,100%);stroke-opacity:1;stroke-miterlimit:10;" d="M 118.695312 143.691406 L 129.539062 138.386719 "/>
<path style="fill:none;stroke-width:1.2;stroke-linecap:butt;stroke-linejoin:miter;stroke:rgb(0%,0%,0%);stroke-opacity:1;stroke-miterlimit:10;" d="M 129.539062 138.386719 L 140.386719 133.078125 "/>
<path style=" stroke:none;fill-rule:nonzero;fill:rgb(100%,100%,100%);fill-opacity:1;" d="M 111.695312 138.191406 L 125.695312 138.191406 L 125.695312 149.191406 L 111.695312 149.191406 Z M 111.695312 138.191406 "/>
<g style="fill:rgb(0%,0%,100%);fill-opacity:1;">
  <use xlink:href="#glyph0-1" x="111.695312" y="146.854492"/>
  <use xlink:href="#glyph0-2" x="118.672852" y="146.854492"/>
</g>
<path style="fill:none;stroke-width:1.2;stroke-linecap:butt;stroke-linejoin:miter;stroke:rgb(0%,0%,0%);stroke-opacity:1;stroke-miterlimit:10;" d="M 140.386719 133.078125 L 141.210938 121.035156 "/>
<path style="fill:none;stroke-width:1.2;stroke-linecap:butt;stroke-linejoin:miter;stroke:rgb(0%,0%,100%);stroke-opacity:1;stroke-miterlimit:10;" d="M 141.210938 121.035156 L 142.039062 108.988281 "/>
<path style="fill:none;stroke-width:1.2;stroke-linecap:butt;stroke-linejoin:miter;stroke:rgb(0%,0%,0%);stroke-opacity:1;stroke-miterlimit:10;" d="M 146.21875 131.058594 L 146.878906 121.425781 "/>
<path style="fill:none;stroke-width:1.2;stroke-linecap:butt;stroke-linejoin:miter;stroke:rgb(0%,0%,100%);stroke-opacity:1;stroke-miterlimit:10;" d="M 146.878906 121.425781 L 147.542969 111.789062 "/>
<path style="fill:none;stroke-width:1.2;stroke-linecap:butt;stroke-linejoin:miter;stroke:rgb(0%,0%,0%);stroke-opacity:1;stroke-miterlimit:10;" d="M 160.417969 146.554688 L 140.386719 133.078125 "/>
<path style="fill:none;stroke-width:1.2;stroke-linecap:butt;stroke-linejoin:miter;stroke:rgb(0%,0%,100%);stroke-opacity:1;stroke-miterlimit:10;" d="M 142.039062 108.988281 L 152.882812 103.683594 "/>
<path style="fill:none;stroke-width:1.2;stroke-linecap:butt;stroke-linejoin:miter;stroke:rgb(0%,0%,0%);stroke-opacity:1;stroke-miterlimit:10;" d="M 152.882812 103.683594 L 163.726562 98.378906 "/>
<path style=" stroke:none;fill-rule:nonzero;fill:rgb(100%,100%,100%);fill-opacity:1;" d="M 139.039062 103.488281 L 146.039062 103.488281 L 146.039062 114.488281 L 139.039062 114.488281 Z M 139.039062 103.488281 "/>
<g style="fill:rgb(0%,0%,100%);fill-opacity:1;">
  <use xlink:href="#glyph0-1" x="139.039062" y="112.151367"/>
</g>
<path style="fill:none;stroke-width:1.2;stroke-linecap:butt;stroke-linejoin:miter;stroke:rgb(0%,0%,0%);stroke-opacity:1;stroke-miterlimit:10;" d="M 163.726562 98.378906 L 173.746094 105.117188 "/>
<path style="fill:none;stroke-width:1.2;stroke-linecap:butt;stroke-linejoin:miter;stroke:rgb(0%,0%,100%);stroke-opacity:1;stroke-miterlimit:10;" d="M 173.746094 105.117188 L 183.761719 111.855469 "/>
<path style="fill:none;stroke-width:1.2;stroke-linecap:butt;stroke-linejoin:miter;stroke:rgb(0%,0%,0%);stroke-opacity:1;stroke-miterlimit:10;" d="M 162.558594 104.441406 L 170.574219 109.832031 "/>
<path style="fill:none;stroke-width:1.2;stroke-linecap:butt;stroke-linejoin:miter;stroke:rgb(0%,0%,100%);stroke-opacity:1;stroke-miterlimit:10;" d="M 170.574219 109.832031 L 178.589844 115.222656 "/>
<path style="fill:none;stroke-width:1.2;stroke-linecap:butt;stroke-linejoin:miter;stroke:rgb(0%,0%,0%);stroke-opacity:1;stroke-miterlimit:10;" d="M 163.726562 98.378906 L 165.382812 74.289062 "/>
<path style="fill:none;stroke-width:1.2;stroke-linecap:butt;stroke-linejoin:miter;stroke:rgb(0%,0%,100%);stroke-opacity:1;stroke-miterlimit:10;" d="M 183.761719 111.855469 L 182.933594 123.898438 "/>
<path style="fill:none;stroke-width:1.2;stroke-linecap:butt;stroke-linejoin:miter;stroke:rgb(0%,0%,0%);stroke-opacity:1;stroke-miterlimit:10;" d="M 182.933594 123.898438 L 182.109375 135.945312 "/>
<path style=" stroke:none;fill-rule:nonzero;fill:rgb(100%,100%,100%);fill-opacity:1;" d="M 180.761719 106.355469 L 187.761719 106.355469 L 187.761719 117.355469 L 180.761719 117.355469 Z M 180.761719 106.355469 "/>
<g style="fill:rgb(0%,0%,100%);fill-opacity:1;">
  <use xlink:href="#glyph0-1" x="180.761719" y="115.018555"/>
</g>
<path style="fill:none;stroke-width:1.2;stroke-linecap:butt;stroke-linejoin:miter;stroke:rgb(0%,0%,0%);stroke-opacity:1;stroke-miterlimit:10;" d="M 182.109375 135.945312 L 160.417969 146.554688 "/>
<path style="fill:none;stroke-width:1.2;stroke-linecap:butt;stroke-linejoin:miter;stroke:rgb(0%,0%,0%);stroke-opacity:1;stroke-miterlimit:10;" d="M 182.4375 142.109375 L 165.085938 150.597656 "/>
<path style="fill:none;stroke-width:1.2;stroke-linecap:butt;stroke-linejoin:miter;stroke:rgb(0%,0%,100%);stroke-opacity:1;stroke-miterlimit:10;" d="M 198.902344 153.292969 L 190.503906 144.617188 "/>
<path style="fill:none;stroke-width:1.2;stroke-linecap:butt;stroke-linejoin:miter;stroke:rgb(0%,0%,0%);stroke-opacity:1;stroke-miterlimit:10;" d="M 190.503906 144.617188 L 182.109375 135.945312 "/>
<path style="fill:none;stroke-width:1.2;stroke-linecap:butt;stroke-linejoin:miter;stroke:rgb(0%,0%,0%);stroke-opacity:1;stroke-miterlimit:10;" d="M 160.417969 146.554688 L 162.113281 158.507812 "/>
<path style="fill:none;stroke-width:1.2;stroke-linecap:butt;stroke-linejoin:miter;stroke:rgb(0%,0%,100%);stroke-opacity:1;stroke-miterlimit:10;" d="M 162.113281 158.507812 L 163.808594 170.460938 "/>
<path style="fill:none;stroke-width:1.2;stroke-linecap:butt;stroke-linejoin:miter;stroke:rgb(0%,0%,100%);stroke-opacity:1;stroke-miterlimit:10;" d="M 163.808594 170.460938 L 175.703125 172.542969 "/>
<path style="fill:none;stroke-width:1.2;stroke-linecap:butt;stroke-linejoin:miter;stroke:rgb(0%,0%,0%);stroke-opacity:1;stroke-miterlimit:10;" d="M 175.703125 172.542969 L 187.59375 174.625 "/>
<path style="fill:none;stroke-width:1.2;stroke-linecap:butt;stroke-linejoin:miter;stroke:rgb(0%,0%,100%);stroke-opacity:1;stroke-miterlimit:10;" d="M 167.167969 165.28125 L 176.679688 166.949219 "/>
<path style="fill:none;stroke-width:1.2;stroke-linecap:butt;stroke-linejoin:miter;stroke:rgb(0%,0%,0%);stroke-opacity:1;stroke-miterlimit:10;" d="M 176.679688 166.949219 L 186.195312 168.613281 "/>
<path style=" stroke:none;fill-rule:nonzero;fill:rgb(100%,100%,100%);fill-opacity:1;" d="M 160.808594 164.960938 L 167.808594 164.960938 L 167.808594 175.960938 L 160.808594 175.960938 Z M 160.808594 164.960938 "/>
<g style="fill:rgb(0%,0%,100%);fill-opacity:1;">
  <use xlink:href="#glyph0-1" x="160.808594" y="173.624023"/>
</g>
<path style="fill:none;stroke-width:1.2;stroke-linecap:butt;stroke-linejoin:miter;stroke:rgb(0%,0%,0%);stroke-opacity:1;stroke-miterlimit:10;" d="M 187.59375 174.625 L 193.246094 163.960938 "/>
<path style="fill:none;stroke-width:1.2;stroke-linecap:butt;stroke-linejoin:miter;stroke:rgb(0%,0%,100%);stroke-opacity:1;stroke-miterlimit:10;" d="M 193.246094 163.960938 L 198.902344 153.292969 "/>
<path style="fill:none;stroke-width:1.2;stroke-linecap:butt;stroke-linejoin:miter;stroke:rgb(0%,0%,0%);stroke-opacity:1;stroke-miterlimit:10;" d="M 187.59375 174.625 L 198.207031 196.316406 "/>
<path style="fill:none;stroke-width:1.2;stroke-linecap:butt;stroke-linejoin:miter;stroke:rgb(0%,0%,100%);stroke-opacity:1;stroke-miterlimit:10;" d="M 198.902344 153.292969 L 210.855469 151.597656 "/>
<path style="fill:none;stroke-width:1.2;stroke-linecap:butt;stroke-linejoin:miter;stroke:rgb(0%,0%,0%);stroke-opacity:1;stroke-miterlimit:10;" d="M 210.855469 151.597656 L 222.808594 149.902344 "/>
<path style=" stroke:none;fill-rule:nonzero;fill:rgb(100%,100%,100%);fill-opacity:1;" d="M 195.902344 147.792969 L 202.902344 147.792969 L 202.902344 158.792969 L 195.902344 158.792969 Z M 195.902344 147.792969 "/>
<g style="fill:rgb(0%,0%,100%);fill-opacity:1;">
  <use xlink:href="#glyph0-1" x="195.902344" y="156.456055"/>
</g>
<path style="fill:none;stroke-width:1.2;stroke-linecap:butt;stroke-linejoin:miter;stroke:rgb(0%,0%,0%);stroke-opacity:1;stroke-miterlimit:10;" d="M 222.808594 149.902344 L 231.828125 127.503906 "/>
<path style="fill:none;stroke-width:1.2;stroke-linecap:butt;stroke-linejoin:miter;stroke:rgb(0%,0%,0%);stroke-opacity:1;stroke-miterlimit:10;" d="M 231.828125 127.503906 L 255.734375 124.113281 "/>
<path style="fill:none;stroke-width:1.2;stroke-linecap:butt;stroke-linejoin:miter;stroke:rgb(0%,0%,0%);stroke-opacity:1;stroke-miterlimit:10;" d="M 216.9375 108.496094 L 231.828125 127.503906 "/>
<path style="fill:none;stroke-width:1.2;stroke-linecap:butt;stroke-linejoin:miter;stroke:rgb(0%,0%,0%);stroke-opacity:1;stroke-miterlimit:10;" d="M 255.734375 124.113281 L 264.75 101.714844 "/>
<path style="fill:none;stroke-width:1.2;stroke-linecap:butt;stroke-linejoin:miter;stroke:rgb(0%,0%,0%);stroke-opacity:1;stroke-miterlimit:10;" d="M 264.75 101.714844 L 257.304688 92.210938 "/>
<path style="fill:none;stroke-width:1.2;stroke-linecap:butt;stroke-linejoin:miter;stroke:rgb(0%,0%,100%);stroke-opacity:1;stroke-miterlimit:10;" d="M 257.304688 92.210938 L 249.859375 82.707031 "/>
<path style="fill:none;stroke-width:1.2;stroke-linecap:butt;stroke-linejoin:miter;stroke:rgb(0%,0%,100%);stroke-opacity:1;stroke-miterlimit:10;" d="M 249.859375 82.707031 L 237.90625 84.402344 "/>
<path style="fill:none;stroke-width:1.2;stroke-linecap:butt;stroke-linejoin:miter;stroke:rgb(0%,0%,0%);stroke-opacity:1;stroke-miterlimit:10;" d="M 237.90625 84.402344 L 225.953125 86.097656 "/>
<path style="fill:none;stroke-width:1.2;stroke-linecap:butt;stroke-linejoin:miter;stroke:rgb(0%,0%,100%);stroke-opacity:1;stroke-miterlimit:10;" d="M 249.859375 82.707031 L 254.371094 71.507812 "/>
<path style="fill:none;stroke-width:1.2;stroke-linecap:butt;stroke-linejoin:miter;stroke:rgb(0%,0%,0%);stroke-opacity:1;stroke-miterlimit:10;" d="M 254.371094 71.507812 L 258.878906 60.308594 "/>
<path style=" stroke:none;fill-rule:nonzero;fill:rgb(100%,100%,100%);fill-opacity:1;" d="M 246.859375 77.207031 L 253.859375 77.207031 L 253.859375 88.207031 L 246.859375 88.207031 Z M 246.859375 77.207031 "/>
<g style="fill:rgb(0%,0%,100%);fill-opacity:1;">
  <use xlink:href="#glyph0-1" x="246.859375" y="85.870117"/>
</g>
<path style="fill:none;stroke-width:1.2;stroke-linecap:butt;stroke-linejoin:miter;stroke:rgb(0%,0%,0%);stroke-opacity:1;stroke-miterlimit:10;" d="M 225.953125 86.097656 L 216.9375 108.496094 "/>
<path style="fill:none;stroke-width:1.2;stroke-linecap:butt;stroke-linejoin:miter;stroke:rgb(0%,0%,0%);stroke-opacity:1;stroke-miterlimit:10;" d="M 198.207031 196.316406 L 184.726562 216.347656 "/>
<path style="fill:none;stroke-width:1.2;stroke-linecap:butt;stroke-linejoin:miter;stroke:rgb(0%,0%,0%);stroke-opacity:1;stroke-miterlimit:10;" d="M 201.570312 201.488281 L 190.789062 217.515625 "/>
<path style="fill:none;stroke-width:1.2;stroke-linecap:butt;stroke-linejoin:miter;stroke:rgb(0%,0%,0%);stroke-opacity:1;stroke-miterlimit:10;" d="M 222.292969 197.96875 L 198.207031 196.316406 "/>
<path style="fill:none;stroke-width:1.2;stroke-linecap:butt;stroke-linejoin:miter;stroke:rgb(0%,0%,0%);stroke-opacity:1;stroke-miterlimit:10;" d="M 184.726562 216.347656 L 195.339844 238.039062 "/>
<path style="fill:none;stroke-width:1.2;stroke-linecap:butt;stroke-linejoin:miter;stroke:rgb(0%,0%,0%);stroke-opacity:1;stroke-miterlimit:10;" d="M 195.339844 238.039062 L 219.429688 239.691406 "/>
<path style="fill:none;stroke-width:1.2;stroke-linecap:butt;stroke-linejoin:miter;stroke:rgb(0%,0%,0%);stroke-opacity:1;stroke-miterlimit:10;" d="M 198.136719 232.535156 L 217.410156 233.859375 "/>
<path style="fill:none;stroke-width:1.2;stroke-linecap:butt;stroke-linejoin:miter;stroke:rgb(0%,0%,0%);stroke-opacity:1;stroke-miterlimit:10;" d="M 219.429688 239.691406 L 232.90625 219.65625 "/>
<path style="fill:none;stroke-width:1.2;stroke-linecap:butt;stroke-linejoin:miter;stroke:rgb(0%,0%,0%);stroke-opacity:1;stroke-miterlimit:10;" d="M 232.90625 219.65625 L 222.292969 197.96875 "/>
<path style="fill:none;stroke-width:1.2;stroke-linecap:butt;stroke-linejoin:miter;stroke:rgb(0%,0%,0%);stroke-opacity:1;stroke-miterlimit:10;" d="M 226.742188 219.984375 L 218.25 202.632812 "/>
</g>
</svg>

<svg xmlns="http://www.w3.org/2000/svg" xmlns:xlink="http://www.w3.org/1999/xlink" width="300pt" height="300pt" viewBox="0 0 300 300"><defs><symbol overflow="visible"><path d="M.453 1.594v-7.938h4.5v7.938zm.5-.5h3.5v-6.938h-3.5zm0 0"/></symbol><symbol overflow="visible" id="a"><path d="M.89-6.563H2.08l2.906 5.485v-5.484h.86V0H4.656L1.75-5.484V0H.89zm0 0"/></symbol><symbol overflow="visible" id="b"><path d="M.89-6.563h.876v2.688H5v-2.688h.89V0H5v-3.125H1.766V0H.89zm0 0"/></symbol></defs><g><path fill="#fff" d="M0 0h300v300H0z"/><path d="M35.25 137.96l21.688-10.612M56.938 127.348l20.035 13.476M76.973 140.824l21.687-10.61M98.66 130.215l10.02 6.738" stroke-width="1.2" stroke="#000" stroke-miterlimit="10" fill="none"/><path d="M108.68 136.953l10.015 6.738M118.695 143.69l10.844-5.303" stroke-width="1.2" stroke="#00f" stroke-miterlimit="10" fill="none"/><path d="M129.54 138.387l10.847-5.31" stroke-width="1.2" stroke="#000" stroke-miterlimit="10" fill="none"/><path d="M111.695 138.19h14v11h-14zm0 0" fill="#fff"/><g fill="#00f"><use xlink:href="#a" x="111.695" y="146.854"/><use xlink:href="#b" x="118.673" y="146.854"/></g><path d="M140.387 133.078l.824-12.043" stroke-width="1.2" stroke="#000" stroke-miterlimit="10" fill="none"/><path d="M141.21 121.035l.83-12.047" stroke-width="1.2" stroke="#00f" stroke-miterlimit="10" fill="none"/><path d="M146.22 131.06l.66-9.634" stroke-width="1.2" stroke="#000" stroke-miterlimit="10" fill="none"/><path d="M146.88 121.426l.663-9.637" stroke-width="1.2" stroke="#00f" stroke-miterlimit="10" fill="none"/><path d="M160.418 146.555l-20.03-13.477" stroke-width="1.2" stroke="#000" stroke-miterlimit="10" fill="none"/><path d="M142.04 108.988l10.843-5.304" stroke-width="1.2" stroke="#00f" stroke-miterlimit="10" fill="none"/><path d="M152.883 103.684l10.844-5.305" stroke-width="1.2" stroke="#000" stroke-miterlimit="10" fill="none"/><path d="M139.04 103.488h7v11h-7zm0 0" fill="#fff"/><use xlink:href="#a" x="139.039" y="112.151" fill="#00f"/><path d="M163.727 98.38l10.02 6.737" stroke-width="1.2" stroke="#000" stroke-miterlimit="10" fill="none"/><path d="M173.746 105.117l10.016 6.738" stroke-width="1.2" stroke="#00f" stroke-miterlimit="10" fill="none"/><path d="M162.56 104.44l8.014 5.392" stroke-width="1.2" stroke="#000" stroke-miterlimit="10" fill="none"/><path d="M170.574 109.832l8.016 5.39" stroke-width="1.2" stroke="#00f" stroke-miterlimit="10" fill="none"/><path d="M163.727 98.38l1.656-24.09" stroke-width="1.2" stroke="#000" stroke-miterlimit="10" fill="none"/><path d="M183.762 111.855l-.828 12.043" stroke-width="1.2" stroke="#00f" stroke-miterlimit="10" fill="none"/><path d="M182.934 123.898l-.825 12.047" stroke-width="1.2" stroke="#000" stroke-miterlimit="10" fill="none"/><path d="M180.762 106.355h7v11h-7zm0 0" fill="#fff"/><use xlink:href="#a" x="180.762" y="115.019" fill="#00f"/><path d="M182.11 135.945l-21.692 10.61M182.438 142.11l-17.352 8.488" stroke-width="1.2" stroke="#000" stroke-miterlimit="10" fill="none"/><path d="M198.902 153.293l-8.398-8.676" stroke-width="1.2" stroke="#00f" stroke-miterlimit="10" fill="none"/><path d="M190.504 144.617l-8.395-8.672M160.418 146.555l1.695 11.953" stroke-width="1.2" stroke="#000" stroke-miterlimit="10" fill="none"/><path d="M162.113 158.508l1.696 11.953M163.81 170.46l11.893 2.083" stroke-width="1.2" stroke="#00f" stroke-miterlimit="10" fill="none"/><path d="M175.703 172.543l11.89 2.082" stroke-width="1.2" stroke="#000" stroke-miterlimit="10" fill="none"/><path d="M167.168 165.28l9.512 1.67" stroke-width="1.2" stroke="#00f" stroke-miterlimit="10" fill="none"/><path d="M176.68 166.95l9.515 1.663" stroke-width="1.2" stroke="#000" stroke-miterlimit="10" fill="none"/><path d="M160.81 164.96h7v11h-7zm0 0" fill="#fff"/><use xlink:href="#a" x="160.809" y="173.624" fill="#00f"/><path d="M187.594 174.625l5.652-10.664" stroke-width="1.2" stroke="#000" stroke-miterlimit="10" fill="none"/><path d="M193.246 163.96l5.656-10.667" stroke-width="1.2" stroke="#00f" stroke-miterlimit="10" fill="none"/><path d="M187.594 174.625l10.613 21.69" stroke-width="1.2" stroke="#000" stroke-miterlimit="10" fill="none"/><path d="M198.902 153.293l11.953-1.695" stroke-width="1.2" stroke="#00f" stroke-miterlimit="10" fill="none"/><path d="M210.855 151.598l11.954-1.696" stroke-width="1.2" stroke="#000" stroke-miterlimit="10" fill="none"/><path d="M195.902 147.793h7v11h-7zm0 0" fill="#fff"/><use xlink:href="#a" x="195.902" y="156.456" fill="#00f"/><path d="M222.81 149.902l9.018-22.398M231.828 127.504l23.906-3.39M216.938 108.496l14.89 19.008M255.734 124.113l9.016-22.398M264.75 101.715l-7.445-9.504" stroke-width="1.2" stroke="#000" stroke-miterlimit="10" fill="none"/><path d="M257.305 92.21l-7.446-9.503M249.86 82.707l-11.954 1.695" stroke-width="1.2" stroke="#00f" stroke-miterlimit="10" fill="none"/><path d="M237.906 84.402l-11.953 1.696" stroke-width="1.2" stroke="#000" stroke-miterlimit="10" fill="none"/><path d="M249.86 82.707l4.51-11.2" stroke-width="1.2" stroke="#00f" stroke-miterlimit="10" fill="none"/><path d="M254.37 71.508l4.51-11.2" stroke-width="1.2" stroke="#000" stroke-miterlimit="10" fill="none"/><path d="M246.86 77.207h7v11h-7zm0 0" fill="#fff"/><use xlink:href="#a" x="246.859" y="85.87" fill="#00f"/><path d="M225.953 86.098l-9.016 22.398M198.207 196.316l-13.48 20.032M201.57 201.488l-10.78 16.028M222.293 197.97l-24.086-1.654M184.727 216.348l10.613 21.69M195.34 238.04l24.09 1.65M198.137 232.535l19.273 1.324M219.43 239.69l13.476-20.034M232.906 219.656l-10.613-21.687M226.742 219.984l-8.492-17.35" stroke-width="1.2" stroke="#000" stroke-miterlimit="10" fill="none"/></g></svg>
